local/share/icons/dracula-icons-main/scalable/apps/preferences-desktop-navigation.svg

<?xml version="1.0" encoding="UTF-8"?>
<svg xmlns="http://www.w3.org/2000/svg" xmlns:xlink="http://www.w3.org/1999/xlink" width="64" height="64" viewBox="0 0 64 64">
<defs>
<filter id="filter-remove-color" x="0%" y="0%" width="100%" height="100%">
<feColorMatrix color-interpolation-filters="sRGB" values="0 0 0 0 1 0 0 0 0 1 0 0 0 0 1 0 0 0 1 0" />
</filter>
<mask id="mask-0">
<g filter="url(#filter-remove-color)">
<rect x="-6.4" y="-6.4" width="76.8" height="76.8" fill="rgb(0%, 0%, 0%)" fill-opacity="0.15"/>
</g>
</mask>
<clipPath id="clip-0">
<rect x="0" y="0" width="64" height="64"/>
</clipPath>
<g id="source-877" clip-path="url(#clip-0)">
<path fill-rule="nonzero" fill="rgb(0%, 0%, 0%)" fill-opacity="1" d="M 32 8 C 45.296875 8 56 18.703125 56 32 C 56 45.296875 45.296875 56 32 56 C 18.703125 56 8 45.296875 8 32 C 8 18.703125 18.703125 8 32 8 Z M 32 8 "/>
</g>
</defs>
<path fill-rule="nonzero" fill="rgb(92.54902%, 92.54902%, 92.54902%)" fill-opacity="1" d="M 32 5 C 46.910156 5 59 17.089844 59 32 C 59 46.910156 46.910156 59 32 59 C 17.089844 59 5 46.910156 5 32 C 5 17.089844 17.089844 5 32 5 Z M 32 5 "/>
<g mask="url(#mask-0)">
<use xlink:href="#source-877"/>
</g>
<path fill-rule="nonzero" fill="rgb(22.745098%, 23.529412%, 23.921569%)" fill-opacity="1" d="M 36 36 L 18 46 L 28 28 Z M 36 36 "/>
<path fill-rule="nonzero" fill="rgb(83.529412%, 13.72549%, 21.568627%)" fill-opacity="1" d="M 28 28 L 46 18 L 36 36 Z M 28 28 "/>
<path fill-rule="nonzero" fill="rgb(30.196078%, 30.196078%, 30.196078%)" fill-opacity="1" d="M 33 12 L 31 12 L 31 8 L 33 8 Z M 33 12 "/>
<path fill-rule="nonzero" fill="rgb(74.117647%, 76.470588%, 78.039216%)" fill-opacity="1" d="M 34 32 C 34 33.105469 33.105469 34 32 34 C 30.894531 34 30 33.105469 30 32 C 30 30.894531 30.894531 30 32 30 C 33.105469 30 34 30.894531 34 32 Z M 34 32 "/>
<path fill-rule="nonzero" fill="rgb(62.352941%, 64.705882%, 65.882353%)" fill-opacity="1" d="M 33 32 C 33 32.550781 32.550781 33 32 33 C 31.449219 33 31 32.550781 31 32 C 31 31.449219 31.449219 31 32 31 C 32.550781 31 33 31.449219 33 32 Z M 33 32 "/>
<path fill-rule="nonzero" fill="rgb(30.196078%, 30.196078%, 30.196078%)" fill-opacity="1" d="M 12 31 L 12 33 L 8 33 L 8 31 Z M 12 31 "/>
<path fill-rule="nonzero" fill="rgb(30.196078%, 30.196078%, 30.196078%)" fill-opacity="1" d="M 56 31 L 56 33 L 52 33 L 52 31 Z M 56 31 "/>
<path fill-rule="nonzero" fill="rgb(30.196078%, 30.196078%, 30.196078%)" fill-opacity="1" d="M 33 56 L 31 56 L 31 52 L 33 52 Z M 33 56 "/>
</svg>

<svg width="64" height="64" version="1.1" viewBox="0 0 64 64" xmlns="http://www.w3.org/2000/svg">
 <rect x="5" y="5" width="54" height="54" ry="27" fill="#ececec" stroke-width=".9104"/>
 <path d="m32 8c13.296 0 24 10.704 24 24s-10.704 24-24 24-24-10.704-24-24 10.704-24 24-24z" opacity=".15" stroke-width="1.7143"/>
 <path d="m36 36-18 10 10-18z" fill="#3a3c3d" stroke-width="1.054"/>
 <path d="m28 28 18-10-10 18z" fill="#d52337" stroke-width="1.054"/>
 <path d="m33 12h-2v-4h2z" fill="#4d4d4d" stroke-width="2.8284"/>
 <path d="m34 32a2 2 0 0 1-2 2 2 2 0 0 1-2-2 2 2 0 0 1 2-2 2 2 0 0 1 2 2z" fill="#bdc3c7" stroke-width="2"/>
 <path d="m33 32a1 1 0 0 1-1 1 1 1 0 0 1-1-1 1 1 0 0 1 1-1 1 1 0 0 1 1 1z" fill="#9fa5a8" stroke-width="2"/>
 <path d="m12 31v2h-4v-2z" fill="#4d4d4d" stroke-width="2.8284"/>
 <path d="m56 31v2h-4v-2z" fill="#4d4d4d" stroke-width="2.8284"/>
 <path d="m33 56h-2v-4h2z" fill="#4d4d4d" stroke-width="2.8284"/>
</svg>
